X: 2554
T: Ballyhoura Mountains, The
R: polka
M: 2/4
K: Gmajor
|:Bc/B/ AG|EG GA|Bc/B/ AG|B/c/d ed|
Bc/B/ AG|EG GA|BB/B/ dB|1 AF GA:|2 AF G2||
|:g>e dB|dB AG|g>e dB|AB d2|
g>e dB|dB AG|BB/B/ dB|1 AF G2:|2 AF GA||

